X: 12212
T: Fahey's Bouncy Boat
R: reel
M: 4/4
K: Edorian
|:EBB/B/B EBB/B/B|EBB/B/B dcBA|EBB/B/B EBB/B/B|EBB/B/B AGFG| 
EBB/B/B EBB/B/B|EBB/B/B dcBA|EBB/B/B EBB/B/B|EBB/B/B AGFG:|
|:E3F GFGA|B2e(d d)BAG|A2G(A A)GEG|A2G(A A)BAG| 
E3F GFGA|B2e(d d)BAG|_BAGB AGBA|G_BAG E4:|

